X:27
T:Orsapolska e. Bengt Jonsson
R:polska
Z:2000 Brian Wilson 
Z:from Bengt 2/90
M:3/4
L:1/8
K:G
|: GB/d/ vg2 d>g | b2 v(g/a/)g/f/ g>f | e2 v(ce) g>f | e2 (d/e/)d/c/ B>A
|  (3GBd vg2 d>g | b2 v(g/a/)g/f/ g>f | e2 v(ce) g>f | ed/^c/ vd4- | d2 ud4 :|
|: g2 (Bc) d>e | (d/e/)d/B/ (G>A) B>B | (3BAB v(c>A) F>A | G2 (GB) d>d
|  g2 (Bc) d>e | (d/e/)d/B/ (G>A) B>B | (3BAB v(c>A) F>A | AG/F/ G4 :|
%X:5
%T:Hambopolskan fragment
Z:2000 Brian Wilson 
P:A
| G>B d2 d>B | d>b g2 g2 | G>B d2 d>B | c>e c2 c2 |
P:B
| dB G2 G2
--------------A7604B677547E55E2FD3603D--
